src/assets/curso/temas/tema_6/img_17.svg

<svg height="74" viewBox="0 0 74 74" width="74" xmlns="http://www.w3.org/2000/svg"><path d="m0 0h74v74h-74z" fill="none"/><g transform="translate(-20.22 -24.98)"><g fill-rule="evenodd"><path d="m42.21 45.97h25.6v43.483a2.365 2.365 0 0 1 -2.359 2.359h-20.882a2.365 2.365 0 0 1 -2.359-2.359z" fill="#e6e6e6" transform="translate(-7.176 -7.176)"/><path d="m67.809 142.105v30.587a2.365 2.365 0 0 1 -2.359 2.359h-20.881a2.365 2.365 0 0 1 -2.359-2.359v-33.57a19.537 19.537 0 0 1 12.8 1.49 19.553 19.553 0 0 0 12.799 1.493z" fill="#8fcae5" transform="translate(-7.176 -90.415)"/><path d="m333.446 70.91h12.008a1 1 0 0 1 1 1v2.93a1 1 0 0 1 -1 1h-12.008a1 1 0 0 1 -1-1v-2.934a1 1 0 0 1 1-.996z" fill="#ffcd05" transform="translate(-267.849 -29.575)"/><path d="m350.526 157.645h7.632a1.5 1.5 0 0 0 1.5-1.5v-36.875h-10.628v36.878a1.5 1.5 0 0 0 1.496 1.497z" fill="#f9a13f" transform="translate(-282.74 -73.009)"/><path d="m394.19 195.21h6.024v22.9h-6.024z" fill="#8fcae5" transform="translate(-323.299 -141.213)"/><path d="m111.8 331.8a6.379 6.379 0 0 1 6.379-11.048z" fill="#f9a13f" transform="translate(-66.809 -253.197)"/><path d="m146.3 328.3a6.379 6.379 0 1 1 -6.379 11.048z" fill="#ffcd05" transform="translate(-94.932 -260.745)"/></g><path d="m40.036 62.005a.815.815 0 0 1 1.631 0v.231a.815.815 0 1 1 -1.631 0zm13.964 1.848a.814.814 0 1 1 1.628 0v.231a.814.814 0 1 1 -1.628 0zm-7.424-.63a.814.814 0 0 1 1.628 0v.234a.814.814 0 0 1 -1.628 0zm-4.355-8.137a.814.814 0 0 1 1.628 0v.234a.814.814 0 1 1 -1.628 0zm4.791 2.264a.814.814 0 1 1 1.628 0v.231a.814.814 0 1 1 -1.628 0zm5.109 1.626a.814.814 0 1 1 1.628 0v.234a.814.814 0 1 1 -1.628 0zm-.4 7.849.052.026a7.194 7.194 0 0 1 2.627 9.825 7.193 7.193 0 1 1 -2.683-9.854zm-5.6 11.429a5.566 5.566 0 0 0 6.879-2.394 5.575 5.575 0 0 0 -1.366-7.147zm-3.321-3.734a5.558 5.558 0 0 0 1.92 2.923l5.509-9.543a5.569 5.569 0 0 0 -7.429 6.62zm33.3-19.708h-4.394v21.274h4.394zm0 22.9h-5.209a.816.816 0 0 1 -.814-.817v-22.895a.815.815 0 0 1 .814-.814h5.209v-6.1h-8.995v36.056a.686.686 0 0 0 .682.682h7.632a.683.683 0 0 0 .678-.682zm-.678 7.733h-7.635a2.314 2.314 0 0 1 -2.31-2.31v-36.065a1.813 1.813 0 0 1 -1.689-1.805v-2.934a1.815 1.815 0 0 1 1.81-1.81h12.002a1.813 1.813 0 0 1 1.81 1.81v2.934a1.812 1.812 0 0 1 -1.686 1.805v36.071a2.316 2.316 0 0 1 -2.305 2.309zm2.178-43.295h-12a.183.183 0 0 0 -.179.182v2.934a.182.182 0 0 0 .179.179h12a.185.185 0 0 0 .182-.179v-2.934a.186.186 0 0 0 -.182-.182zm-41.751 5.567a20.345 20.345 0 0 1 12.339 1.75 18.776 18.776 0 0 0 11.631 1.563v-11.422h-23.97zm23.97 4.961a20.343 20.343 0 0 1 -12.339-1.747 18.762 18.762 0 0 0 -11.632-1.563v32.909a1.553 1.553 0 0 0 1.545 1.545h20.882a1.552 1.552 0 0 0 1.545-1.545v-29.6zm-24.785-14.698h25.6a.813.813 0 0 1 .814.814v43.483a3.18 3.18 0 0 1 -3.173 3.173h-20.882a3.18 3.18 0 0 1 -3.173-3.173v-43.483a.813.813 0 0 1 .814-.814z"/></g></svg>

<svg xmlns="http://www.w3.org/2000/svg" width="74" height="74" viewBox="0 0 74 74">
  <g id="Grupo_1127778" data-name="Grupo 1127778" transform="translate(-190.577 -4349)">
    <rect id="Rectángulo_413391" data-name="Rectángulo 413391" width="74" height="74" transform="translate(190.577 4349)" fill="none"/>
    <g id="Grupo_1127773" data-name="Grupo 1127773" transform="translate(170.357 4324.02)">
      <g id="Grupo_1127772" data-name="Grupo 1127772" transform="translate(35.034 38.794)">
        <path id="Trazado_919469" data-name="Trazado 919469" d="M42.21,45.97h25.6V89.453a2.365,2.365,0,0,1-2.359,2.359H44.569a2.365,2.365,0,0,1-2.359-2.359Z" transform="translate(-42.21 -45.97)" fill="#e6e6e6" fill-rule="evenodd"/>
        <path id="Trazado_919470" data-name="Trazado 919470" d="M67.809,142.105v30.587a2.365,2.365,0,0,1-2.359,2.359H44.569a2.365,2.365,0,0,1-2.359-2.359V139.122a19.537,19.537,0,0,1,12.8,1.49A19.553,19.553,0,0,0,67.809,142.105Z" transform="translate(-42.21 -129.209)" fill="#8fcae5" fill-rule="evenodd"/>
        <path id="Trazado_919471" data-name="Trazado 919471" d="M333.446,70.91h12.008a1,1,0,0,1,1,1V74.84a1,1,0,0,1-1,1H333.446a1,1,0,0,1-1-1V71.906A1,1,0,0,1,333.446,70.91Z" transform="translate(-302.883 -68.369)" fill="#ffcd05" fill-rule="evenodd"/>
        <path id="Trazado_919472" data-name="Trazado 919472" d="M350.526,157.645h7.632a1.5,1.5,0,0,0,1.5-1.5V119.27H349.03v36.878A1.5,1.5,0,0,0,350.526,157.645Z" transform="translate(-317.774 -111.803)" fill="#f9a13f" fill-rule="evenodd"/>
        <path id="Trazado_919473" data-name="Trazado 919473" d="M394.19,195.21h6.024v22.9H394.19Z" transform="translate(-358.333 -180.007)" fill="#8fcae5" fill-rule="evenodd"/>
        <path id="Trazado_919474" data-name="Trazado 919474" d="M111.8,331.8a6.379,6.379,0,0,1,6.379-11.048Z" transform="translate(-101.843 -291.991)" fill="#f9a13f" fill-rule="evenodd"/>
        <path id="Trazado_919475" data-name="Trazado 919475" d="M146.3,328.3a6.379,6.379,0,1,1-6.379,11.048Z" transform="translate(-129.966 -299.539)" fill="#ffcd05" fill-rule="evenodd"/>
      </g>
      <path id="Trazado_919476" data-name="Trazado 919476" d="M40.036,62.005a.815.815,0,0,1,1.631,0v.231a.815.815,0,1,1-1.631,0ZM54,63.853a.814.814,0,1,1,1.628,0v.231a.814.814,0,1,1-1.628,0Zm-7.424-.63a.814.814,0,0,1,1.628,0v.234a.814.814,0,0,1-1.628,0Zm-4.355-8.137a.814.814,0,0,1,1.628,0v.234a.814.814,0,1,1-1.628,0Zm4.791,2.264a.814.814,0,1,1,1.628,0v.231a.814.814,0,1,1-1.628,0Zm5.109,1.626a.814.814,0,1,1,1.628,0v.234a.814.814,0,1,1-1.628,0Zm-.4,7.849.052.026A7.194,7.194,0,0,1,54.4,76.676l0,0a7.193,7.193,0,1,1-2.683-9.854Zm-5.6,11.429A5.566,5.566,0,0,0,53,75.86l0,0a5.575,5.575,0,0,0-1.366-7.147ZM42.8,74.52a5.558,5.558,0,0,0,1.92,2.923L50.229,67.9A5.569,5.569,0,0,0,42.8,74.52ZM76.1,54.812H71.706V76.086H76.1Zm0,22.9H70.891a.816.816,0,0,1-.814-.817V54a.815.815,0,0,1,.814-.814H76.1v-6.1H67.105V83.142a.686.686,0,0,0,.682.682h7.632a.683.683,0,0,0,.678-.682Zm-.678,7.733H67.787a2.314,2.314,0,0,1-2.31-2.31V47.07a1.813,1.813,0,0,1-1.689-1.805V42.331a1.815,1.815,0,0,1,1.81-1.81H77.6a1.813,1.813,0,0,1,1.81,1.81v2.934a1.812,1.812,0,0,1-1.686,1.805V83.141A2.316,2.316,0,0,1,75.419,85.45ZM77.6,42.15H65.6a.183.183,0,0,0-.179.182v2.934a.182.182,0,0,0,.179.179H77.6a.185.185,0,0,0,.182-.179V42.332A.186.186,0,0,0,77.6,42.15ZM35.849,47.717a20.345,20.345,0,0,1,12.339,1.75A18.776,18.776,0,0,0,59.819,51.03V39.608H35.849Zm23.97,4.961a20.343,20.343,0,0,1-12.339-1.747,18.762,18.762,0,0,0-11.632-1.563V82.277a1.553,1.553,0,0,0,1.545,1.545H58.275a1.552,1.552,0,0,0,1.545-1.545v-29.6ZM35.034,37.98h25.6a.813.813,0,0,1,.814.814V82.277a3.18,3.18,0,0,1-3.173,3.173H37.393a3.18,3.18,0,0,1-3.173-3.173V38.794A.813.813,0,0,1,35.034,37.98Z"/>
    </g>
  </g>
</svg>
